X: 1
T:Polska efter Carl Johan Nilsson
R:sl-polska
H:Han hade den efter Lars L\"ofgren, Krtorp, K\"attilstad
A:\"Osterg\"otland
B:SvL \"Ogl 443, efter Carl Johan Nilsson, \"Askeb\"ack, Kisa
Z:id:hn-sp-81
M:3/4
L:1/16
K:G
G2(3AGF G2A2 B2G2 | [D2G,2]d2 d2e2 f2d2 | D2g2 g2g2 b2g2 |
g2g2 (ag)fg d4 :||: B2d2 (edBd) (edBd) | (A2c2) (dcAc) (dcAc) |
B2d2 (edBd) (edBd) | (A2c2) (dcAc) (dcAc) | d2ef (gf)ge d2dc |
(dc)Bc A2(AF) G4 :|

